public/images/Logo.svg

<svg width="641" height="241" viewBox="0 0 641 241" fill="none" xmlns="http://www.w3.org/2000/svg">
<path d="M339.911 145.067C337.157 150.156 331.045 161.265 328.264 162.484C325.484 163.704 321.904 164.425 317.549 164.635H269.875L277.141 139.401L284.761 115.807C287.646 115.951 292.643 116.135 298.034 115.925C309.51 115.492 317.235 113.617 320.999 110.338C323.622 108.056 323.674 105.813 322.284 102.561C320.435 98.2063 315.293 95.7144 309.247 91.8716C303.831 88.4223 298.309 84.2385 295.398 79.5957L293.719 75.8972C293.234 74.166 293.168 72.3954 293.653 70.5724C294.414 67.687 299.227 61.7064 301.955 58.4932L303.936 56.4734H345.865C350.088 56.6833 353.197 57.4046 355.19 58.6243C357.184 59.8441 356.121 70.9527 355.584 76.0414H356.502L363.112 54.8865H293.22L292.958 55.6865C294.309 55.6865 295.175 56.0275 295.568 56.7226C295.962 57.4177 295.804 58.8211 295.122 60.9326L293.063 67.2935C292.971 67.4509 292.879 67.5952 292.801 67.7526C292.211 68.8411 291.778 69.9166 291.502 70.9658C289.128 79.9498 298.453 85.891 307.477 91.6224C313.405 95.3865 318.992 98.9539 320.749 103.059C321.89 105.748 320.776 107.846 319.071 109.538C314.546 114.01 298.624 113.472 285.863 112.384V112.331C282.518 112.109 280.236 111.925 280.236 111.925L278.78 111.545L263.081 160.163C262.399 162.288 261.639 163.691 260.799 164.373C259.96 165.068 258.871 165.409 257.521 165.409L257.258 166.209H333.773L340.829 145.054H339.911V145.067Z" fill="#2C2F30"/>
<path d="M219.75 0L48.0311 240.154H51.4936L223.317 0H219.75Z" fill="#2C2F30"/>
<path d="M90.0775 136.28C94.4842 127.847 96.7007 118.863 96.7007 109.315C96.7007 99.7675 94.458 90.3901 89.9856 81.7995C85.5133 73.209 78.8639 66.271 70.0242 60.9593C61.1976 55.6608 50.6529 53.0115 38.3901 53.0115H0.5V53.8115C1.85088 53.8115 2.83452 54.1525 3.43783 54.8476C4.05424 55.5427 4.3559 56.9461 4.3559 59.0576V158.472C4.3559 160.596 4.05424 162 3.43783 162.682C2.82141 163.377 1.83776 163.718 0.5 163.718V164.518H38.9409C51.2037 164.518 61.6828 161.921 70.3914 156.727C79.1 151.534 85.6576 144.714 90.0775 136.294V136.28ZM39.1245 162.918H11.7136V54.6115H38.0097C48.9217 54.6115 58.2466 57.1821 65.9715 62.3233C73.6964 67.4645 79.4934 74.1664 83.3493 82.4422C87.2052 90.7179 89.1463 99.5708 89.1463 109.001C89.1463 118.431 87.2446 127.113 83.4411 135.323C79.6377 143.546 73.9325 150.196 66.3388 155.285C58.7319 160.373 49.6561 162.918 39.1114 162.918H39.1245Z" fill="#2C2F30"/>
<path d="M466.409 57.9032C467.996 56.4211 469.898 55.6736 472.101 55.6736L472.35 54.8735H457.281L457.019 55.6736C459.222 55.6736 460.639 56.4211 461.268 57.9032C461.884 59.3852 461.596 61.982 460.402 65.6937L431.693 154.602L387.193 54.8735H375.428L375.166 55.6736C376.281 55.6736 377.094 55.9621 377.645 56.5523C378.196 57.1294 379.009 58.5983 380.098 60.9197L380.307 61.3918L349.959 155.389C348.765 159.101 347.375 161.698 345.788 163.18C344.201 164.662 342.312 165.409 340.109 165.409L339.847 166.209H354.929L355.192 165.409C352.988 165.409 351.572 164.675 350.942 163.18C350.313 161.698 350.601 159.101 351.808 155.389L381.396 63.7788L427.955 166.209H429.791L462.252 65.6805C463.458 61.9689 464.849 59.3721 466.422 57.8901L466.409 57.9032Z" fill="#2C2F30"/>
<path d="M570.636 54.8735L570.373 55.6736C571.724 55.6736 572.59 56.0146 572.983 56.7097C573.377 57.4048 573.233 58.8081 572.551 60.9197L556.996 109.079C557.35 109.053 557.73 109.027 558.111 109.013V109.158C571.816 107.964 589.85 107.072 592.066 111.807C592.866 113.499 592.84 115.61 590.256 118.286C586.282 122.391 578.767 125.958 570.806 129.723C562.229 133.788 553.442 137.946 548.156 143.218C546.477 144.818 544.969 146.667 544.248 148.609L544.051 149.212C543.907 149.592 543.776 149.986 543.658 150.379C543.658 150.432 543.658 150.484 543.618 150.537L540.497 160.176C539.802 162.301 539.041 163.704 538.215 164.386C537.375 165.081 536.287 165.422 534.936 165.422L534.674 166.222H611.188L618.244 145.067H617.326C614.585 150.156 608.473 161.265 605.68 162.485C602.899 163.704 599.332 164.426 594.965 164.635H547.369C546.831 162.721 544.589 154.366 545.572 150.786C547.854 142.536 559.999 136.201 571.751 130.641C579.882 126.798 587.554 123.152 591.764 118.797C594.912 115.532 595.804 113.302 594.414 111.02C592.433 107.741 585.718 105.866 574.465 105.433C571.278 105.315 568.17 105.328 565.547 105.394L581.338 56.4736H623.281C627.504 56.6834 630.612 57.4048 632.605 58.6245C634.599 59.8442 633.537 70.9529 632.999 76.0416H633.917L640.527 54.8866H570.636V54.8735Z" fill="#2C2F30"/>
<path d="M255.409 125.815C252.917 121.355 249.455 117.381 245.009 113.88C240.563 110.378 234.674 106.299 227.356 101.63C220.719 97.4986 215.88 94.2591 212.837 91.9246C209.794 89.5901 207.551 87.1244 206.122 84.5276C204.692 81.9307 204.273 78.9405 204.889 75.5436C205.728 71.4123 208.207 67.7531 212.299 64.5661C216.391 61.3791 221.519 58.9003 227.683 57.0904C233.848 55.2936 240.235 54.3886 246.858 54.3886C256.786 54.3886 264.262 56.1986 269.298 59.7921C274.321 63.3988 276.682 69.3532 276.118 76.0289L276.984 76.0026L283.581 54.8214C283.581 54.8214 280.984 54.8477 280.958 54.9001C279.62 57.2478 277.718 61.0119 276.485 61.8906C272.774 58.4937 268.629 56.6314 263.737 55.0969C258.832 53.5624 253.14 52.7886 246.635 52.7886C236.208 52.7886 226.385 54.9132 217.178 59.1495C207.958 63.3988 201.702 69.4843 198.397 77.4453C196.417 82.4291 197.689 87.3343 202.2 92.1607C206.712 96.9871 213.571 102.207 222.805 107.833C229.559 111.965 235.015 115.69 239.159 118.968C243.304 122.26 246.425 125.88 248.511 129.867C250.596 133.841 250.911 138.117 249.429 142.668C247.881 147.442 245.022 151.573 240.825 155.075C239.146 156.465 237.363 157.724 235.474 158.852C235.605 158.747 235.736 158.655 235.867 158.55C231.133 161.134 227.001 163.495 219.539 161.606C210.424 159.285 204.627 146.602 198.476 134.851C194.226 126.719 190.2 119.047 185.374 114.837C181.767 111.689 178.081 110.798 175.563 112.175C171.943 114.168 170.435 120.883 169.963 132.123C169.622 140.281 165.491 156.373 165.491 156.478L163.615 162.695C163.615 162.695 166.54 159.036 166.592 158.983C167.996 157.75 169.478 156.806 170.711 156.019L172.14 155.901C175.694 159.639 179.773 161.895 184.626 163.888C189.688 165.96 195.643 167.233 202.515 167.718C213.532 168.505 224.077 166.892 234.162 162.905C244.235 158.904 251.33 152.648 255.449 144.11C256.026 142.851 256.576 141.094 256.944 139.336C258.321 134.576 257.822 130.064 255.449 125.801L255.409 125.815ZM176.993 114.548C178.868 113.748 181.19 113.775 184.154 116.372C188.705 120.345 192.639 127.861 196.81 135.821C203.158 147.94 209.729 160.478 219.657 162.97C220.824 163.259 222.018 163.403 223.211 163.403C223.972 163.403 224.732 163.35 225.493 163.259C220.181 164.911 214.87 165.751 209.584 165.751C198.305 165.751 189.964 163.547 184.587 159.154C181.714 156.806 178.724 154.157 176.573 150.983C175.104 148.32 174.094 145.081 173.452 141.618C173.452 141.5 173.452 141.382 173.452 141.264H173.399C171.379 129.723 173.517 116.044 176.993 114.562V114.548Z" fill="#2C2F30"/>
<path d="M532.693 125.815C530.214 121.356 526.738 117.382 522.292 113.88C517.846 110.378 511.957 106.299 504.639 101.63C498.003 97.499 493.163 94.2595 490.12 91.925C487.065 89.5905 484.835 87.1248 483.405 84.528C481.976 81.9312 481.556 78.9409 482.159 75.544C483.012 71.4127 485.478 67.7535 489.57 64.5665C493.662 61.3795 498.79 58.9007 504.954 57.0908C505.137 57.0383 505.321 56.9859 505.505 56.9334C508.088 56.6318 510.488 56.5137 511.892 56.8154C520.495 58.6646 522.869 68.488 524.6 77.9835C525.807 84.5542 527.525 92.489 530.87 95.899C533.375 98.4433 535.683 98.5876 538.857 97.4728C543.421 95.8596 549.559 87.7544 553.074 78.9933C553.467 77.9966 553.848 76.9998 554.215 76.0031H554.254L554.464 75.3211C556.536 69.5503 557.992 64.2911 558.005 64.2386L557.926 64.1993L560.851 54.8087C560.851 54.8087 558.254 54.835 558.215 54.8874C556.877 57.2351 554.976 60.9992 553.756 61.8779C550.044 58.481 545.9 56.6187 540.995 55.0842C536.103 53.5497 530.397 52.7759 523.905 52.7759C517.02 52.7759 510.397 53.7071 504.036 55.5563C501.19 56.1859 498.016 57.2613 494.501 58.8089C494.501 58.8089 494.999 58.704 495.826 58.5335C495.367 58.7302 494.907 58.9401 494.448 59.1499C485.228 63.3993 478.972 69.4848 475.667 77.4457C473.687 82.4296 474.946 87.3347 479.458 92.1611C483.969 96.9875 490.842 102.207 500.062 107.834C506.816 111.965 512.272 115.69 516.417 118.969C520.574 122.261 523.682 125.881 525.781 129.868C527.866 133.841 528.168 138.117 526.699 142.668C525.164 147.442 522.292 151.573 518.095 155.075C513.898 158.577 509.033 161.226 503.485 163.023C497.937 164.833 492.402 165.725 486.881 165.725C475.602 165.725 467.274 163.521 461.883 159.128C456.506 154.734 450.748 149.304 450.748 141.239H448.138V141.199L447.22 141.16L439.731 166.735C439.731 166.735 442.328 163.39 442.368 163.338C443.968 160.846 447.574 156.295 448.938 155.416C452.598 159.456 456.821 161.816 461.883 163.889C466.933 165.961 472.9 167.233 479.772 167.718C490.789 168.505 501.334 166.892 511.407 162.905C521.492 158.905 528.588 152.649 532.706 144.111C533.283 142.852 533.834 141.094 534.201 139.337C535.578 134.576 535.08 130.064 532.693 125.802V125.815ZM524.128 54.4022C534.057 54.4022 541.532 56.2121 546.569 59.8057C549.861 62.1664 551.998 65.5371 552.93 69.4585C552.313 72.2259 551.684 75.1899 550.661 78.2064C547.788 86.7445 542.752 95.6367 538.883 96.7383C536.614 97.381 534.778 97.3679 532.719 95.2694C529.558 92.0562 527.879 83.6755 526.699 77.2359C524.902 67.4257 522.476 57.2875 513.112 55.2809C513.098 55.2809 513.085 55.2809 513.085 55.2809C516.692 54.7038 520.364 54.4022 524.128 54.4022Z" fill="#2C2F30"/>
</svg>

<svg xmlns="http://www.w3.org/2000/svg" width="641" height="241" fill="none" viewBox="0 0 641 241"><path fill="#2c2f30" d="M339.911 145.067c-2.754 5.089-8.866 16.198-11.647 17.417-2.78 1.22-6.36 1.941-10.715 2.151h-47.674l7.266-25.234 7.62-23.594c2.885.144 7.882.328 13.273.118 11.476-.433 19.201-2.308 22.965-5.587 2.623-2.282 2.675-4.525 1.285-7.777-1.849-4.355-6.991-6.847-13.037-10.69-5.416-3.449-10.938-7.632-13.849-12.275l-1.679-3.699c-.485-1.731-.551-3.502-.066-5.325.761-2.885 5.574-8.866 8.302-12.079l1.981-2.02h41.929c4.223.21 7.332.932 9.325 2.151 1.994 1.22.931 12.329.394 17.417h.918l6.61-21.154H293.22l-.262.8c1.351 0 2.217.34 2.61 1.036.394.695.236 2.098-.446 4.21l-2.059 6.36c-.092.158-.184.302-.262.46a14.5 14.5 0 0 0-1.299 3.213c-2.374 8.984 6.951 14.925 15.975 20.656 5.928 3.764 11.515 7.332 13.272 11.437 1.141 2.689.027 4.787-1.678 6.479-4.525 4.472-20.447 3.934-33.208 2.846v-.053c-3.345-.222-5.627-.406-5.627-.406l-1.456-.38-15.699 48.618q-1.023 3.187-2.282 4.21c-.839.695-1.928 1.036-3.278 1.036l-.263.8h76.515l7.056-21.155h-.918zM219.75 0 48.031 240.154h3.463L223.317 0zM90.078 136.28c4.406-8.433 6.623-17.417 6.623-26.965s-2.243-18.925-6.715-27.516c-4.473-8.59-11.122-15.528-19.962-20.84q-13.24-7.948-31.634-7.948H.5v.8c1.35 0 2.335.342 2.938 1.037.616.695.918 2.098.918 4.21v99.414c0 2.124-.302 3.528-.918 4.21-.617.695-1.6 1.036-2.938 1.036v.8h38.44c12.264 0 22.743-2.597 31.451-7.791 8.709-5.193 15.267-12.013 19.686-20.433zm-50.954 26.638h-27.41V54.612H38.01c10.912 0 20.237 2.57 27.962 7.711 7.724 5.142 13.521 11.843 17.377 20.12 3.856 8.275 5.797 17.128 5.797 26.558s-1.901 18.112-5.705 26.322c-3.803 8.223-9.508 14.873-17.102 19.962q-11.41 7.632-27.228 7.633zM466.409 57.903c1.587-1.482 3.489-2.23 5.692-2.23l.249-.8h-15.069l-.262.8c2.203 0 3.62.748 4.249 2.23q.924 2.223-.866 7.79l-28.709 88.909-44.5-99.728h-11.765l-.262.8c1.115 0 1.928.288 2.479.878.551.577 1.364 2.046 2.453 4.368l.209.472-30.348 93.997q-1.79 5.568-4.171 7.791c-1.587 1.482-3.476 2.229-5.679 2.229l-.262.8h15.082l.263-.8c-2.204 0-3.62-.734-4.25-2.229q-.944-2.223.866-7.791l29.588-91.61 46.559 102.43h1.836L462.252 65.68q1.81-5.567 4.17-7.79zM570.636 54.874l-.263.8c1.351 0 2.217.34 2.61 1.036q.591 1.042-.432 4.21l-15.555 48.159c.354-.026.734-.052 1.115-.066v.145c13.705-1.194 31.739-2.086 33.955 2.649.8 1.692.774 3.803-1.81 6.479-3.974 4.105-11.489 7.672-19.45 11.437-8.577 4.065-17.364 8.223-22.65 13.495-1.679 1.6-3.187 3.449-3.908 5.391l-.197.603c-.144.38-.275.774-.393 1.167 0 .053 0 .105-.04.158l-3.121 9.639q-1.043 3.187-2.282 4.21c-.84.695-1.928 1.036-3.279 1.036l-.262.8h76.514l7.056-21.155h-.918c-2.741 5.089-8.853 16.198-11.646 17.418-2.781 1.219-6.348 1.941-10.715 2.15h-47.596c-.538-1.914-2.78-10.269-1.797-13.849 2.282-8.25 14.427-14.585 26.179-20.145 8.131-3.843 15.803-7.489 20.013-11.844 3.148-3.265 4.04-5.495 2.65-7.777-1.981-3.279-8.696-5.154-19.949-5.587a146 146 0 0 0-8.918-.039l15.791-48.92h41.943c4.223.21 7.331.93 9.324 2.15 1.994 1.22.932 12.329.394 17.418h.918l6.61-21.155h-69.891zM255.409 125.815c-2.492-4.46-5.954-8.434-10.4-11.935s-10.335-7.581-17.653-12.25c-6.637-4.131-11.476-7.37-14.519-9.705s-5.286-4.8-6.715-7.397-1.849-5.588-1.233-8.984c.839-4.132 3.318-7.79 7.41-10.978s9.22-5.666 15.384-7.476c6.165-1.796 12.552-2.701 19.175-2.701 9.928 0 17.404 1.81 22.44 5.403 5.023 3.607 7.384 9.561 6.82 16.237l.866-.026 6.597-21.182s-2.597.027-2.623.08c-1.338 2.347-3.24 6.11-4.473 6.99-3.711-3.397-7.856-5.26-12.748-6.794-4.905-1.535-10.597-2.308-17.102-2.308-10.427 0-20.25 2.124-29.457 6.36-9.22 4.25-15.476 10.335-18.781 18.296-1.98 4.984-.708 9.89 3.803 14.716s11.371 10.046 20.605 15.672c6.754 4.132 12.21 7.857 16.354 11.135 4.145 3.292 7.266 6.912 9.352 10.899 2.085 3.974 2.4 8.25.918 12.801-1.548 4.774-4.407 8.905-8.604 12.407a43 43 0 0 1-5.351 3.777c.131-.105.262-.197.393-.302-4.734 2.584-8.866 4.945-16.328 3.056-9.115-2.321-14.912-15.004-21.063-26.755-4.25-8.132-8.276-15.804-13.102-20.014-3.607-3.148-7.293-4.039-9.811-2.662-3.62 1.993-5.128 8.708-5.6 19.948-.341 8.158-4.472 24.25-4.472 24.355l-1.876 6.217s2.925-3.659 2.977-3.712c1.404-1.233 2.886-2.177 4.119-2.964l1.429-.118c3.554 3.738 7.633 5.994 12.486 7.987 5.062 2.072 11.017 3.345 17.889 3.83 11.017.787 21.562-.826 31.647-4.813 10.073-4.001 17.168-10.257 21.287-18.795.577-1.259 1.127-3.016 1.495-4.774q2.065-7.14-1.495-13.535zm-78.416-11.267c1.875-.8 4.197-.773 7.161 1.824 4.551 3.973 8.485 11.489 12.656 19.449 6.348 12.119 12.919 24.657 22.847 27.149 1.167.289 2.361.433 3.554.433.761 0 1.521-.053 2.282-.144-5.312 1.652-10.623 2.492-15.909 2.492-11.279 0-19.62-2.204-24.997-6.597-2.873-2.348-5.863-4.997-8.014-8.171-1.469-2.663-2.479-5.902-3.121-9.365v-.354h-.053c-2.02-11.541.118-25.22 3.594-26.702zM532.693 125.815c-2.479-4.459-5.955-8.433-10.401-11.935s-10.335-7.581-17.653-12.25c-6.636-4.131-11.476-7.37-14.519-9.705-3.055-2.334-5.285-4.8-6.715-7.397s-1.849-5.587-1.246-8.984c.853-4.131 3.319-7.79 7.411-10.977s9.22-5.666 15.384-7.476l.551-.158c2.583-.301 4.983-.42 6.387-.118 8.603 1.85 10.977 11.673 12.708 21.169 1.207 6.57 2.925 14.505 6.27 17.915 2.505 2.544 4.813 2.689 7.987 1.574 4.564-1.613 10.702-9.719 14.217-18.48q.59-1.494 1.141-2.99h.039l.21-.682a173 173 0 0 0 3.541-11.082l-.079-.04 2.925-9.39s-2.597.026-2.636.078c-1.338 2.348-3.239 6.112-4.459 6.99-3.712-3.396-7.856-5.258-12.761-6.793-4.892-1.534-10.598-2.308-17.09-2.308-6.885 0-13.508.931-19.869 2.78-2.846.63-6.02 1.705-9.535 3.253 0 0 .498-.105 1.325-.276-.459.197-.919.407-1.378.617-9.22 4.25-15.476 10.335-18.781 18.296-1.98 4.984-.721 9.889 3.791 14.715s11.384 10.046 20.604 15.673c6.754 4.131 12.21 7.856 16.355 11.135 4.157 3.292 7.265 6.912 9.364 10.899 2.085 3.973 2.387 8.249.918 12.8-1.535 4.774-4.407 8.905-8.604 12.407s-9.062 6.151-14.61 7.948c-5.548 1.81-11.083 2.702-16.604 2.702-11.279 0-19.607-2.204-24.998-6.597-5.377-4.394-11.135-9.824-11.135-17.889h-2.61v-.04l-.918-.039-7.489 25.575 2.637-3.397c1.6-2.492 5.206-7.043 6.57-7.922 3.66 4.04 7.883 6.4 12.945 8.473 5.05 2.072 11.017 3.344 17.889 3.829 11.017.787 21.562-.826 31.635-4.813 10.085-4 17.181-10.256 21.299-18.794.577-1.259 1.128-3.017 1.495-4.774 1.377-4.761.879-9.273-1.508-13.535zm-8.565-71.413c9.929 0 17.404 1.81 22.441 5.404 3.292 2.36 5.429 5.731 6.361 9.653-.617 2.767-1.246 5.73-2.269 8.747-2.873 8.539-7.909 17.43-11.778 18.532-2.269.643-4.105.63-6.164-1.469-3.161-3.213-4.84-11.594-6.02-18.033-1.797-9.81-4.223-19.949-13.587-21.955h-.027a70 70 0 0 1 11.043-.879"/></svg>
